X:1
T:Polsk
T:(Totakt-pols, nr. HJH-279)
S:efter Hans Jens Hansen,
O:Hjertinge, Ribe amt, Danmark
R:Totakt-pols
Z:ABC-transkribering av Åke Persson
M:2/4
L:1/8
Q:1/4=100
K:D
|: "D"dffe/d/ | "A"{d}c2 c/d/e/f/ | gedc | "D"d/e/f/g/ af | dffe/d/ | "A"{d}c2 c/d/e/f/ | "Em"ge"A"dc | "D"d2 z2 :|
|: "D"FD"Em"GE | "D"FD"Em"GE | "D"FG"A"AB/c/ | "D"dA/G/ G/F/E/D/ | "D"FD"G"GE | "D"FD"G"GE | "D"FG"A"AB/c/ | "D"d2 d2 :|

